SVG/BC.svg

<svg width="227px" height="227px" viewBox="0 0 227 227" version="1.1" xmlns="http://www.w3.org/2000/svg">
  <defs>
    <linearGradient x1="50%" y1="0%" x2="50%" y2="97.1998565%" id="linearGradient-1">
      <stop stop-color="#DEB34F" offset="0%"></stop>
      <stop stop-color="#C39248" offset="100%"></stop>
    </linearGradient>
  </defs>
  <path d="M113.45,0.122 C50.861,0.122 0.122,50.861 0.122,113.45 C0.122,176.039 50.861,226.777 113.45,226.777 C176.039,226.777 226.777,176.039 226.777,113.45 C226.777,50.861 176.039,0.122 113.45,0.122 Z" fill="#FFD662"></path>
  <path d="M113.45048,5.11999989 C53.6215195,5.11999989 5.11999989,53.6215195 5.11999989,113.45048 C5.11999989,173.27944 53.6215195,221.780004 113.45048,221.780004 C173.27944,221.780004 221.780004,173.27944 221.780004,113.45048 C221.780004,53.6215195 173.27944,5.11999989 113.45048,5.11999989 Z" fill="#000000"></path>
  <path d="M127.593,100.42 C134.887,90.937 132.595,73.091 123.764,66.994 C114.932,60.897 105.631,63.947 103.833,65.665 C102.035,67.385 102.114,107.401 102.114,107.401 C102.114,107.401 120.298,109.903 127.593,100.42 Z M128.946,117.459 C122.12,114.489 102.113,115.271 102.113,115.271 C102.113,115.271 101.802,125.379 102.529,144.294 C103.26,163.207 109.721,163.103 116.442,163.365 C123.166,163.626 135.983,163.156 140.203,146.846 C144.423,130.537 135.774,120.428 128.946,117.459 Z M159.482,81.688 C159.794,100.602 143.302,105.917 143.302,105.917 C143.302,105.917 150.024,99.421 149.711,82.783 C149.398,66.143 136.894,57.928 136.894,57.928 C136.894,57.928 159.17,62.774 159.482,81.688 Z M85.336,170.553 L62.513,171.648 L62.513,169.564 C62.513,169.564 76.478,168.156 76.478,143.668 L76.478,81.088 C76.478,60.351 62.513,56.754 62.513,56.754 L62.513,54.88 L85.336,55.973 L85.336,170.553 Z M121.809,171.725 C111.883,171.804 93.462,170.449 93.462,170.449 L93.462,56.131 C105.604,55.974 109.85,54.333 119.854,55.739 C129.859,57.144 138.457,66.916 140.801,76.686 C143.146,86.455 140.646,95.757 137.439,100.836 C134.236,105.917 127.201,109.435 127.201,109.435 C127.201,109.435 137.831,113.03 141.584,116.155 C145.335,119.282 152.604,127.801 149.79,146.325 C146.976,164.848 131.735,171.648 121.809,171.725 Z M148.189,167.506 C148.189,167.506 159.012,158.282 158.536,139.581 C158.058,120.878 148.189,112.091 148.189,112.091 C148.189,112.091 168.547,117.094 168.781,139.369 C169.016,161.644 148.189,167.506 148.189,167.506 Z" fill="url(#linearGradient-1)"></path>
</svg>

<svg xmlns="http://www.w3.org/2000/svg" width="226.777" height="226.777" viewBox="0 0 226.777 226.777"><path d="M127.593 100.42c7.294-9.483 5.002-27.329-3.829-33.426-8.832-6.097-18.133-3.047-19.931-1.329-1.798 1.72-1.719 41.736-1.719 41.736s18.184 2.502 25.479-6.981zm1.353 17.039c-6.826-2.97-26.833-2.188-26.833-2.188s-.311 10.108.416 29.023c.731 18.913 7.192 18.809 13.913 19.071 6.724.261 19.541-.209 23.761-16.519 4.22-16.309-4.429-26.418-11.257-29.387z"/><path d="M113.45.122C50.861.122.122 50.861.122 113.45S50.861 226.777 113.45 226.777s113.327-50.738 113.327-113.327S176.039.122 113.45.122zm46.032 81.566c.312 18.914-16.18 24.229-16.18 24.229s6.722-6.496 6.409-23.134c-.313-16.64-12.817-24.855-12.817-24.855s22.276 4.846 22.588 23.76zm-74.146 88.865l-22.823 1.095v-2.084s13.965-1.408 13.965-25.896v-62.58c0-20.737-13.965-24.334-13.965-24.334V54.88l22.823 1.093v114.58zm36.473 1.172c-9.926.079-28.347-1.276-28.347-1.276V56.131c12.142-.157 16.388-1.798 26.392-.392 10.005 1.405 18.603 11.177 20.947 20.947 2.345 9.769-.155 19.071-3.362 24.15-3.203 5.081-10.238 8.599-10.238 8.599s10.63 3.595 14.383 6.72c3.751 3.127 11.02 11.646 8.206 30.17-2.814 18.523-18.055 25.323-27.981 25.4zm26.38-4.219s10.823-9.224 10.347-27.925c-.478-18.703-10.347-27.49-10.347-27.49s20.358 5.003 20.592 27.278c.235 22.275-20.592 28.137-20.592 28.137z"/></svg>
